X:54
T:Lord McDonalds
R:Reel
S:Paddy Canny, Clare (fiddle).
D:Clare FM broadcast.
N:As played
P:ABCB
M:4/4
Z:Bernie Stocks
K:G
(3DEF | G2BG (3.d.d.G BG | cGBG AE~E2 | DGBG (3.d.d.G BG | DEDC B,G,+G,2D2+ |
(3.D.D.G BG dGBG | cGBG AE~E2 | AcBA GFGE | DEGA BGGA ||
Bd~d2 {e}dBGA | Bdeg aged | Bd{e}dB +d2D2+ge | dBAc BGGA |
Bd~d2 {e}dBGA | Bdeg aged | Bdeg {a}gf{a}ge | dBAc BGGB ||
dgbg agbg | dg(3bag ageg | dgbg (3agf dB | ~d3c BGGB |
dgbg agbg | dg(3bag ageg | bgag {a}ged^c | dega bg~g2 ||
<end>
<start>
